public/primaries/ParkingNo.svg

<svg id="Layer_1" data-name="Layer 1" xmlns="http://www.w3.org/2000/svg" width="64" height="64" viewBox="0 0 64 64">
  <defs>
    <style>
      .cls-1 {
        fill-rule: evenodd;
      }
    </style>
  </defs>
  <title>Icons 400</title>
  <path class="cls-1" d="M32,56.0157a24,24,0,1,1,24-24A24,24,0,0,1,32,56.0157Zm-20-24A19.9961,19.9961,0,0,0,44.6475,47.5047L16.511,19.3681A19.9136,19.9136,0,0,0,12,32.0156Zm20-20A19.9139,19.9139,0,0,0,19.34,16.536l28.14,28.14A19.9968,19.9968,0,0,0,32,12.0152ZM40.6432,35.002l-3.1974-3.1974a.7619.7619,0,0,1-.046-1.0064,2.9449,2.9449,0,0,0,.6-1.7825,3,3,0,0,0-3-3H32.4853a2,2,0,0,1-1.4142-.5858l-4.5606-4.5606a.5.5,0,0,1,.3535-.8536H35A8.9913,8.9913,0,0,1,41.7523,34.954.76.76,0,0,1,40.6432,35.002ZM31.136,38.0157H28v5a1,1,0,0,1-1,1H23a1,1,0,0,1-1-1V28.88a.5.5,0,0,1,.8536-.3535l8.6359,8.636A.5.5,0,0,1,31.136,38.0157Z"/>
</svg>

<svg id="Layer_1" data-name="Layer 1" xmlns="http://www.w3.org/2000/svg" width="64" height="64" viewBox="0 0 64 64"><defs><style>.cls-1{fill-rule:evenodd}</style></defs><title>Icons 400</title><path class="cls-1" d="M32 56.016a24 24 0 1 1 24-24 24 24 0 0 1-24 24zm-20-24a19.996 19.996 0 0 0 32.648 15.489L16.51 19.368A19.914 19.914 0 0 0 12 32.016zm20-20a19.914 19.914 0 0 0-12.66 4.52l28.14 28.14A19.997 19.997 0 0 0 32 12.016zm8.643 22.986l-3.197-3.197a.762.762 0 0 1-.046-1.007 2.945 2.945 0 0 0 .6-1.782 3 3 0 0 0-3-3h-2.515a2 2 0 0 1-1.414-.586l-4.56-4.56a.5.5 0 0 1 .353-.854H35a8.991 8.991 0 0 1 6.752 14.938.76.76 0 0 1-1.109.048zm-9.507 3.014H28v5a1 1 0 0 1-1 1h-4a1 1 0 0 1-1-1V28.88a.5.5 0 0 1 .854-.353l8.636 8.635a.5.5 0 0 1-.354.854z"/></svg>
